src/baseIcons/icon-preview.svg

<svg xmlns="http://www.w3.org/2000/svg" viewBox="0 0 24 24"><path fill="#5F686D" fill-rule="evenodd" d="M12.7072078.29499905l7 7.002c.1916862.19174099.2837029.42488593.2938495.65647189L20 8.00400482v3.99799998c0 .5522848-.4477153 1-1 1s-1-.4477152-1-1V9.004l-6 .00000482c-.55228475 0-1-.44771525-1-1V2.002l-7 .00000482V22.0020048h7c.55228475 0 1 .4477153 1 1 0 .5522848-.44771525 1-1 1H4c-1.1014753 0-2-.8979054-2-2V2.00200482c0-1.10209455.8985247-2 2-2l7.94161972.00015688c.26627848-.01753713.54368948.0708754.76558808.29283735zM17.001 15.0020048c2.206904 0 3.999 1.793334 3.999 4 0 .7413131-.2017643 1.4355908-.553325 2.0309029l1.2605318 1.2620903c.3905243.3905243.3905243 1.0236893 0 1.4142136-.3905243.3905243-1.0236893.3905243-1.4142136 0l-1.2617971-1.2605696c-.5951639.3515985-1.2892186.5533628-2.0301961.5533628-2.2093725 0-4.001-1.7908028-4.001-4 0-2.2070786 1.7925089-4 4.001-4zm0 2c-1.1038186 0-2.001.8973879-2.001 2 0 1.1044215.8959909 2 2.001 2 .5466913 0 1.0424453-.219972 1.4034978-.5762738l.0094954-.009733a1.0224944 1.0224944 0 01.0095339-.0094096C18.7800279 20.0451957 19 19.5491917 19 19.0020048c0-1.1024056-.8969748-2-1.999-2zM13 3.41670614v3.58729868h3.586274L13 3.41670614z"/></svg>

<?xml version="1.0" encoding="UTF-8"?>
<svg  viewBox="0 0 24 24" version="1.1" xmlns="http://www.w3.org/2000/svg" xmlns:xlink="http://www.w3.org/1999/xlink">
    <title>Icons/Basic icons/ preview</title>
    <g  id="Icons/Basic-icons/-preview" stroke="none" stroke-width="1" fill="none" fill-rule="evenodd">
        <path d="M12.7072078,0.294999048 L19.7072078,7.29699905 C19.898894,7.48874004 19.9909107,7.72188498 20.0010573,7.95347094 L20,8.00400482 L20,12.0020048 C20,12.5542896 19.5522847,13.0020048 19,13.0020048 C18.4477153,13.0020048 18,12.5542896 18,12.0020048 L18,12.0020048 L18,9.004 L12,9.00400482 C11.4477153,9.00400482 11,8.55628957 11,8.00400482 L11,2.002 L4,2.00200482 L4,22.0020048 L11,22.0020048 C11.5522847,22.0020048 12,22.4497201 12,23.0020048 C12,23.5542896 11.5522847,24.0020048 11,24.0020048 L11,24.0020048 L4,24.0020048 C2.8985247,24.0020048 2,23.1040994 2,22.0020048 L2,22.0020048 L2,2.00200482 C2,0.899910271 2.8985247,0.00200482104 4,0.00200482104 L4,0.00200482104 L11.9416197,0.00216170371 C12.2078982,-0.0153754259 12.4853092,0.0730371077 12.7072078,0.294999048 Z M17.001,15.0020048 C19.207904,15.0020048 21,16.7953388 21,19.0020048 C21,19.7433179 20.7982357,20.4375956 20.446675,21.0329077 L21.7072068,22.294998 C22.0977311,22.6855223 22.0977311,23.3186873 21.7072068,23.7092116 C21.3166825,24.0997359 20.6835175,24.0997359 20.2929932,23.7092116 L20.2929932,23.7092116 L19.0311961,22.448642 C18.4360322,22.8002405 17.7419775,23.0020048 17.001,23.0020048 C14.7916275,23.0020048 13,21.211202 13,19.0020048 C13,16.7949262 14.7925089,15.0020048 17.001,15.0020048 Z M17.001,17.0020048 C15.8971814,17.0020048 15,17.8993927 15,19.0020048 C15,20.1064263 15.8959909,21.0020048 17.001,21.0020048 C17.5476913,21.0020048 18.0434453,20.7820328 18.4044978,20.425731 L18.4139932,20.415998 C18.4171554,20.4128359 18.4203334,20.4096994 18.4235271,20.4065884 C18.7800279,20.0451957 19,19.5491917 19,19.0020048 C19,17.8995992 18.1030252,17.0020048 17.001,17.0020048 Z M13,3.41670614 L13,7.00400482 L16.586274,7.00400482 L13,3.41670614 Z"  id="Combined-Shape" fill="#292929"></path>
    </g>
</svg>
